202404-ahaslides-april/assets/images/foryou.svg

<svg width="186" height="176" viewBox="0 0 186 176" fill="none" xmlns="http://www.w3.org/2000/svg">
<rect x="11" width="81" height="14" fill="#2C7C17"/>
<rect x="172" y="174" width="80" height="14" transform="rotate(-90 172 174)" fill="#2C7C17"/>
<g clip-path="url(#clip0_2007_1845)">
<rect x="51.0703" y="-40.5493" width="279.285" height="56.5845" transform="rotate(45 51.0703 -40.5493)" fill="#39A61D"/>
<path d="M146.057 109.367C142.621 105.931 143.024 101.71 145.76 98.973L154.67 90.0635L157.406 92.8L148.794 101.413C146.885 103.322 147.33 105.295 148.73 106.695C150.13 108.095 152.103 108.54 154.012 106.631L162.625 98.0184L165.361 100.755L156.452 109.664C153.715 112.401 149.494 112.804 146.057 109.367Z" fill="white"/>
<path d="M132.094 95.4038C127.999 91.3096 128.106 85.476 132.2 81.3819C136.294 77.2877 142.127 77.1817 146.222 81.2758C150.316 85.3699 150.167 91.1612 146.073 95.2553C141.979 99.3494 136.188 99.4979 132.094 95.4038ZM134.83 92.6673C137.354 95.1917 140.812 95.0007 143.315 92.4976C145.819 89.9944 146.009 86.5367 143.485 84.0123C140.961 81.4879 137.439 81.6152 134.936 84.1184C132.433 86.6215 132.306 90.1429 134.83 92.6673Z" fill="white"/>
<path d="M117.874 80.8451L123.729 74.9902L126.763 62.1562L129.902 65.2958L127.951 73.4841L136.139 71.5325L139.3 74.6933L126.466 77.7267L120.611 83.5816L117.874 80.8451Z" fill="white"/>
<path d="M97.1177 60.0884L110.906 46.2998L117.525 52.9183C119.582 54.976 120.155 58.6883 117.185 61.6582C114.894 63.9492 112.137 64.1189 110.037 63.1219L108.212 71.1829L105.051 68.0221L106.791 60.3429L104.564 58.1156L99.8542 62.8249L97.1177 60.0884ZM107.236 55.4427L110.673 58.8792C111.691 59.8975 113.282 60.046 114.428 58.9004C115.594 57.7337 115.446 56.1427 114.428 55.1245L110.991 51.688L107.236 55.4427Z" fill="white"/>
<path d="M88.3299 51.6401C84.2358 47.546 84.3419 41.7123 88.436 37.6182C92.5302 33.524 98.3638 33.418 102.458 37.5121C106.552 41.6063 106.404 47.3975 102.309 51.4916C98.2153 55.5858 92.4241 55.7343 88.3299 51.6401ZM91.0664 48.9036C93.5908 51.428 97.0486 51.2371 99.5517 48.7339C102.055 46.2308 102.246 42.773 99.7214 40.2486C97.1971 37.7243 93.6757 37.8515 91.1725 40.3547C88.6693 42.8579 88.5421 46.3792 91.0664 48.9036Z" fill="white"/>
<path d="M71.1138 34.084L84.9023 20.2954L94.2998 29.6929L91.7118 32.2809L85.0508 25.6199L81.6355 29.0353L87.8934 35.2931L85.3266 37.8599L79.0687 31.602L73.8503 36.8205L71.1138 34.084Z" fill="white"/>
</g>
<defs>
<clipPath id="clip0_2007_1845">
<rect width="186" height="176" fill="white"/>
</clipPath>
</defs>
</svg>

<svg xmlns="http://www.w3.org/2000/svg" width="186" height="176" fill="none" viewBox="0 0 186 176">
  <path fill="#2C7C17" d="M11 0h81v14H11zm161 174V94h14v80z"/>
  <g clip-path="url(#a)">
    <path fill="#39A61D" d="m51.07-40.55 197.484 197.485-40.011 40.011L11.058-.538z"/>
    <path fill="#fff" d="M146.057 109.367c-3.436-3.436-3.033-7.657-.297-10.394l8.91-8.91 2.736 2.737-8.612 8.613c-1.909 1.909-1.464 3.882-.064 5.282s3.373 1.845 5.282-.064l8.613-8.613 2.736 2.737-8.909 8.909c-2.737 2.737-6.958 3.14-10.395-.297Zm-13.963-13.963c-4.095-4.094-3.988-9.928.106-14.022 4.094-4.094 9.927-4.2 14.022-.106 4.094 4.094 3.945 9.885-.149 13.98-4.094 4.093-9.885 4.242-13.979.148Zm2.736-2.737c2.524 2.525 5.982 2.334 8.485-.17 2.504-2.503 2.694-5.96.17-8.485-2.524-2.524-6.046-2.397-8.549.106-2.503 2.504-2.63 6.025-.106 8.55Zm-16.956-11.822 5.855-5.855 3.034-12.834 3.139 3.14-1.951 8.188 8.188-1.951 3.161 3.16-12.834 3.034-5.855 5.855-2.737-2.737ZM97.118 60.088 110.906 46.3l6.619 6.618c2.057 2.058 2.63 5.77-.34 8.74-2.291 2.291-5.048 2.46-7.148 1.464l-1.825 8.06-3.161-3.16 1.74-7.68-2.227-2.226-4.71 4.709-2.736-2.737Zm10.118-4.645 3.437 3.436c1.018 1.019 2.609 1.167 3.755.021 1.166-1.166 1.018-2.757 0-3.776l-3.437-3.436-3.755 3.755ZM88.33 51.64c-4.094-4.094-3.988-9.928.106-14.022 4.094-4.094 9.928-4.2 14.022-.106 4.094 4.094 3.946 9.886-.149 13.98-4.094 4.094-9.885 4.242-13.98.148Zm2.736-2.736c2.525 2.524 5.983 2.333 8.486-.17 2.503-2.503 2.694-5.961.17-8.485-2.525-2.525-6.046-2.398-8.55.106-2.503 2.503-2.63 6.024-.106 8.549Zm-19.952-14.82 13.788-13.789 9.398 9.398-2.588 2.588-6.661-6.661-3.416 3.415 6.258 6.258-2.566 2.567-6.258-6.258-5.219 5.219-2.736-2.737Z"/>
  </g>
  <defs>
    <clipPath id="a">
      <path fill="#fff" d="M0 0h186v176H0z"/>
    </clipPath>
  </defs>
</svg>
